!!!OTL: Plauderei an der Linde (67), S. 200
!!!id: T0216
**kern
*clefG2
*k[f#]
*G:
*M2/4
4r
{8d
8d
=2
4g
4b
=3
4b
8a
8g
=4
4a}
=5
{8d
8f#
=6
4a
4cc
=7
4cc
4b}
=8
4r
=9
{8dd
8dd
=10
4b
4dd
=11
8ee
8dd
8cc
8b
=12
4cc}
=13
{8cc
8cc
=14
4a
4cc
=15
8dd
8cc
8b
8a
=16
4b}
=17
{8g
8b
=18
4dd
8b
8g
=19
4a
4g}
==
*-
!!!minrhy: 8
!!!meters: 2/4 ]  ZZ[5
!!!cut: Plauderei an der Linde (67), S. 200
!!!reg: Luxemburg
!!!trd: Singendes Volk, Esch-Alzette 1937 posth.
!!!rhy1: 0_XX  X_X_  X_XX  X_
!!!rhy2: XX  X_X_  X_X_  0_
!!!key: T0216  08  G 2/4 ]  ZZ[5
!!!mod: HEPTATONIK IONISCH]  AMBITUS[9
!!!kad: 23431
!!!akz: 132_24_364_253_52_
!!!fot: 'a__as"b__bs_c__
!!!for: 'a__b__c__c__aw_
!!!fok: '/__/__Sd_Sd_^__
!! PHRAS[AUFTAKTIG]
!!!fkt: Liebeslieder
!!!bem: Burglinster, fff M. Lemmer, 7.1.1914
!! THILL, Mathias:
!! PR[29] 2K[4] 2G[18] 3K[0] 3G[0] 4A[7] 4Ü[0] 5A[4] 6K[0] 6G[0]
!! 7K[0] 7G[0] 8A[0] MEHR[0] SI[32] ABS[28] SR[21] SP[11]
!! ST[5] 2k[7] 2g[29] 3k[0] 3g[0] 4d[4] 4ü[0] 5d[0] 6k[0] 6g[0]
!! 7k[0] 7g[0] 8d[0] mehr[0] si[39] dm[-7] sr[36] sp[4]
!! 1F[62] 2F[38] 3F[0] 4F[0] LF[0] 2P[0] 3P[0] 4P[0] TRI[0] DF[2] AB[29]
!! TF[0] U3K[0] U3[0] U4[0] U4Ü[0] U5[7] U6K[0] U6[0] U7K[0] U7[0]
!! N1[31] N2K[0] N2[21] N3K[0] N3[21] N4[10] N4Ü[0] N5[10] N6K[0] N6[0]
!!!n7k: 0] N7[0] O1[0] O2K[0] O2[0] O3K[0] O3[0] HÖ[0
